src/settings.svg

<svg width="24" height="24" viewBox="0 0 24 24" xmlns="http://www.w3.org/2000/svg">
<path fill-rule="evenodd" clip-rule="evenodd" d="M19.43 12.98C19.47 12.66 19.5 12.34 19.5 12C19.5 11.66 19.47 11.34 19.43 11.02L21.54 9.37C21.73 9.22 21.78 8.95 21.66 8.73L19.66 5.27C19.54 5.05 19.27 4.97 19.05 5.05L16.56 6.05C16.04 5.65 15.48 5.32 14.87 5.07L14.49 2.42C14.46 2.18 14.25 2 14 2H9.99999C9.74999 2 9.53999 2.18 9.50999 2.42L9.12999 5.07C8.51999 5.32 7.95999 5.66 7.43999 6.05L4.94999 5.05C4.71999 4.96 4.45999 5.05 4.33999 5.27L2.33999 8.73C2.20999 8.95 2.26999 9.22 2.45999 9.37L4.56999 11.02C4.52999 11.34 4.49999 11.67 4.49999 12C4.49999 12.33 4.52999 12.66 4.56999 12.98L2.45999 14.63C2.26999 14.78 2.21999 15.05 2.33999 15.27L4.33999 18.73C4.45999 18.95 4.72999 19.03 4.94999 18.95L7.43999 17.95C7.95999 18.35 8.51999 18.68 9.12999 18.93L9.50999 21.58C9.53999 21.82 9.74999 22 9.99999 22H14C14.25 22 14.46 21.82 14.49 21.58L14.87 18.93C15.48 18.68 16.04 18.34 16.56 17.95L19.05 18.95C19.28 19.04 19.54 18.95 19.66 18.73L21.66 15.27C21.78 15.05 21.73 14.78 21.54 14.63L19.43 12.98V12.98ZM12 16C9.79428 16 7.99999 14.2057 7.99999 12C7.99999 9.79429 9.79428 8 12 8C14.2057 8 16 9.79429 16 12C16 14.2057 14.2057 16 12 16V16Z" fill="currentColor"/>
</svg>

<svg width="24" height="24" viewBox="0 0 24 24" xmlns="http://www.w3.org/2000/svg" xmlns:xlink="http://www.w3.org/1999/xlink">
  <path d="M19.43 12.98c.04-.32.07-.64.07-.98 0-.34-.03-.66-.07-.98l2.11-1.65c.19-.15.24-.42.12-.64l-2-3.46c-.12-.22-.39-.3-.61-.22l-2.49 1c-.52-.4-1.08-.73-1.69-.98l-.38-2.65A.488.488 0 0 0 14 2h-4c-.25 0-.46.18-.49.42l-.38 2.65c-.61.25-1.17.59-1.69.98l-2.49-1c-.23-.09-.49 0-.61.22l-2 3.46c-.13.22-.07.49.12.64l2.11 1.65c-.04.32-.07.65-.07.98 0 .33.03.66.07.98l-2.11 1.65c-.19.15-.24.42-.12.64l2 3.46c.12.22.39.3.61.22l2.49-1c.52.4 1.08.73 1.69.98l.38 2.65c.03.24.24.42.49.42h4c.25 0 .46-.18.49-.42l.38-2.65c.61-.25 1.17-.59 1.69-.98l2.49 1c.23.09.49 0 .61-.22l2-3.46c.12-.22.07-.49-.12-.64l-2.11-1.65zM12 15.5c-1.93 0-3.5-1.57-3.5-3.5s1.57-3.5 3.5-3.5 3.5 1.57 3.5 3.5-1.57 3.5-3.5 3.5z" fill="currentColor"/>
</svg>
